build/img/landings/smm-strategy/smm-strategy-need-1.svg

<svg width="433" height="353" viewBox="0 0 433 353" fill="none" xmlns="http://www.w3.org/2000/svg">
<g clip-path="url(#clip0)">
<path d="M238.079 59.2192L193.987 52.0578L204.434 24.0753C206.744 17.8821 203.725 15.0667 197.715 17.8134L145.501 41.6843L123.704 11.6147C120.573 7.29889 116.644 7.90733 114.965 12.9678L103.284 48.2279L46.2951 41.2664C39.736 40.466 37.71 44.0626 41.7843 49.2673L60.2107 72.7725L20.3432 92.9346C12.8449 96.7245 13.496 100.929 21.7903 102.28L65.8823 109.441L55.4349 137.424C53.1256 143.617 56.1444 146.432 62.1542 143.686L114.368 119.815L136.167 149.891C139.297 154.206 143.227 153.598 144.905 148.537L156.587 113.277L213.575 120.239C220.134 121.039 222.16 117.443 218.086 112.238L199.665 88.7256L239.526 68.5644C247.024 64.7745 246.373 60.5701 238.079 59.2192Z" fill="#171717"/>
<path fill-rule="evenodd" clip-rule="evenodd" d="M226.696 169.891V173.163V179.801C226.696 180.672 225.39 180.672 225.39 179.801V173.163C225.39 172.293 226.696 172.293 226.696 173.163C226.696 174.034 225.39 174.034 225.39 173.163V169.891H166.572L166.448 182.738H172.449V183.324C172.545 183.268 172.657 183.236 172.776 183.236H263.034L264.839 181.584V169.891H226.696ZM261.607 184.542H172.776C172.657 184.542 172.545 184.511 172.449 184.455V194.583H260.406L260.448 190.746V185.604L261.607 184.542ZM172.449 195.889V198.273H166.448L166.654 212.503C167.627 211.397 168.714 211.397 169.916 212.503C170.092 212.665 170.259 212.842 170.419 213.032H260.448L264.128 211.399V198.273H260.366L260.392 195.889H172.449ZM238.994 230.836L259.926 230.827L260.409 214.338H171.277C171.761 215.277 172.125 216.42 172.368 217.766V228.463L172.449 230.864L195.306 230.855V239.124L156.695 237.235C152.257 237.018 148.521 233.841 147.593 229.495C136.925 179.505 137.8 150.967 150.217 143.879C172.762 131.011 174.745 160.158 185.71 157.718C196.674 155.278 187.141 126.709 210.234 124.378C233.327 122.046 227.459 137.847 235.362 149.318C243.265 160.79 248.597 133.438 271.079 133.519C296.067 133.609 295.295 151.282 295.295 168.069L288.324 239.167C288.078 241.68 285.902 243.557 283.381 243.434L238.879 241.256L238.994 230.836ZM217.956 230.845L218.259 230.845C218.546 230.913 218.76 231.171 218.761 231.479L218.937 301.553L224.509 293.32C224.711 293.021 225.117 292.943 225.416 293.145C225.715 293.347 225.793 293.753 225.591 294.052L219.01 303.776L229.549 303.77C229.909 303.77 230.202 304.062 230.202 304.423C230.202 304.783 229.91 305.076 229.55 305.076L206.666 305.088C206.306 305.089 206.013 304.796 206.013 304.436C206.013 304.075 206.305 303.783 206.666 303.782L217.532 303.776L209.796 294.157C209.57 293.876 209.614 293.465 209.895 293.239C210.176 293.013 210.587 293.057 210.813 293.338L217.631 301.815L217.455 231.482C217.454 231.173 217.668 230.913 217.956 230.845ZM51.7019 132.331L62.3091 107.645L66.3829 106.078L57.5654 127.887L71.952 107.272C72.1584 106.976 72.5655 106.903 72.8613 107.11C73.157 107.316 73.2295 107.723 73.0231 108.019L59.632 127.207L81.012 108.475C81.2832 108.237 81.6958 108.265 81.9335 108.536C82.1712 108.807 82.144 109.22 81.8727 109.457L59.4358 129.116L93.1856 104.881L113.196 147.255L67.6706 158.932C65.3877 162.587 63.9802 164.62 63.364 165.137C62.5968 165.781 61.7068 166.237 60.7357 166.366C59.4556 166.536 58.1782 166.11 56.9847 165.006C55.5212 163.653 54.8235 162.062 54.9175 160.283C53.0418 160.414 51.358 159.803 49.9071 158.461C48.3235 156.996 47.6427 155.33 47.9149 153.52L45.1711 150.496C43.3411 148.478 42.955 145.538 44.2023 143.117C46.1779 139.282 48.2024 136.232 50.2813 133.966C50.7848 133.417 51.2583 132.872 51.7019 132.331ZM162.625 291.372L117.34 291.811L118.4 302.744H130.958C131.319 302.744 131.611 303.037 131.611 303.397C131.611 303.758 131.319 304.05 130.958 304.05H121.219C123.198 304.594 124.628 305.172 125.523 305.795C127.27 307.013 127.136 308.57 125.268 309.898C123.529 311.134 121.794 311.22 120.208 310.114C118.788 309.124 117.507 307.19 116.327 304.311L97.1496 307.564C94.2526 308.056 91.8291 310.038 90.7726 312.78L90.4203 313.694H153.163L168.388 300.315L162.625 291.372ZM116.029 291.823L100.897 291.97L91.6186 282.228L108.372 252.203C108.547 251.888 108.434 251.491 108.119 251.315C107.805 251.139 107.407 251.252 107.231 251.567L90.6754 281.238L90.6681 281.23L90.615 281.346L85.6404 290.262L77.3457 314.558C77.2555 314.822 77.0071 315 76.7277 315H0.653661C0.195198 315 -0.120554 314.54 0.0442826 314.112L0.738656 312.31C1.96086 309.138 4.76451 306.845 8.11598 306.276L25.4006 303.344C22.5761 302.532 20.6319 301.714 19.5453 300.868C17.8646 299.561 18.0792 298.013 20.0146 296.785C21.8154 295.642 23.5531 295.647 25.0789 296.834C26.4386 297.892 27.6117 299.876 28.6363 302.789L36.9585 291.97H24.697L52.4362 241.417C52.4895 241.477 52.5548 241.528 52.6308 241.567C52.9529 241.729 53.3456 241.599 53.5078 241.277L86.0183 176.737C86.1806 176.415 86.051 176.022 85.7289 175.86C85.4067 175.698 85.0141 175.827 84.8518 176.15L52.3414 240.69C52.304 240.764 52.2821 240.842 52.2745 240.92L35.5678 223.379L67.8754 159.263L98.7926 159.606L131.087 159.263V192.839L116.384 224.993L161.323 287.265C161.482 287.305 161.622 287.404 161.712 287.545L163.276 289.971L164.275 291.356L164.169 291.357L169.79 300.08C169.965 300.352 169.915 300.711 169.672 300.924L153.841 314.837C153.721 314.942 153.568 315 153.409 315H89.4688C89.0104 315 88.6946 314.54 88.8595 314.112L89.5538 312.31C90.7761 309.138 93.5797 306.845 96.9312 306.276L114.215 303.344C111.391 302.532 109.447 301.714 108.36 300.868C106.679 299.561 106.894 298.013 108.829 296.785C110.63 295.642 112.368 295.647 113.894 296.834C115.045 297.729 116.062 299.289 116.969 301.514L116.029 291.823ZM83.6771 291.97H38.6063L30.3186 302.744H42.1432C42.5039 302.744 42.7963 303.037 42.7963 303.397C42.7963 303.758 42.5039 304.05 42.1432 304.05H32.4047C34.3832 304.594 35.8138 305.172 36.7082 305.795C38.4549 307.013 38.3216 308.57 36.4532 309.898C34.7147 311.134 32.9791 311.22 31.3933 310.114C29.9731 309.124 28.6922 307.19 27.5118 304.311L8.33442 307.564C5.43739 308.056 3.01389 310.038 1.95741 312.78L1.60513 313.694H76.2606L83.6771 291.97ZM24.2769 297.865C23.206 297.032 22.0682 297.028 20.7146 297.887C19.4955 298.661 19.4312 299.125 20.3472 299.838C21.4304 300.68 23.7013 301.566 27.1247 302.462C26.2499 300.187 25.2914 298.654 24.2769 297.865ZM32.1402 309.043C33.2532 309.819 34.3897 309.762 35.6965 308.834C36.8734 307.997 36.9133 307.531 35.9612 306.867C34.8354 306.082 32.5213 305.316 29.0557 304.6C30.0483 306.827 31.0858 308.308 32.1402 309.043ZM113.092 297.865C112.021 297.032 110.883 297.028 109.529 297.887C108.31 298.661 108.246 299.125 109.162 299.838C110.245 300.68 112.516 301.566 115.939 302.462C115.065 300.187 114.106 298.654 113.092 297.865ZM120.955 309.043C122.068 309.819 123.204 309.762 124.511 308.834C125.688 307.997 125.728 307.531 124.776 306.867C123.65 306.082 121.336 305.316 117.87 304.6C118.863 306.827 119.901 308.308 120.955 309.043ZM195.306 280.552H168.921C165.01 280.552 161.725 277.611 161.294 273.724C160.732 268.655 162.328 264.696 166.081 261.848C174.029 255.815 178.145 264.182 181.372 263.349C184.599 262.516 180.067 251.921 185.74 248.371C191.413 244.822 192.914 251.974 195.08 255.622C195.157 255.752 195.232 255.864 195.306 255.962V280.552ZM238.59 267.337C238.858 267.292 239.136 267.076 239.44 266.635C241.576 263.534 243.056 257.454 248.651 260.472C254.245 263.489 255.114 273.099 258.297 273.807C261.479 274.515 266.924 264.191 274.762 269.319C278.981 272.079 279.838 276.647 277.333 283.024C276.179 285.964 273.34 287.896 270.181 287.892L238.363 287.85L238.59 267.337ZM89.7648 82.8337C90.2211 82.7552 90.6299 82.3458 91.0065 81.5064C91.1542 81.1773 91.5406 81.0303 91.8697 81.1779C92.1987 81.3256 92.3458 81.712 92.1981 82.0411C91.7379 83.0667 91.1306 83.7453 90.3852 84.0184L95.372 93.5397C99.0667 96.7324 102.428 97.2906 105.599 95.3088C108.898 93.2477 112.666 91.8407 116.9 91.0867L102.726 66.9648C102.497 66.5751 102.225 66.2229 101.918 65.9118L95.4593 69.1945L85.9776 71.2716C85.6357 72.5324 85.6187 73.8838 85.9685 75.1905C86.449 74.7637 86.977 74.3842 87.5517 74.0523C88.5226 73.4918 89.5444 73.115 90.6142 72.9237C91.9456 72.6857 93.2179 73.5721 93.4559 74.9035C93.584 75.6201 93.3867 76.3565 92.9174 76.913C92.2169 77.7439 91.3797 78.4404 90.4088 79.0009C89.438 79.5615 88.4162 79.9382 87.3463 80.1295C86.6658 80.2512 86.0007 80.0791 85.4813 79.7039C84.8391 80.7267 83.9916 82.0764 82.9389 83.7528L88.6541 81.8868C88.9571 81.7878 89.2874 81.9222 89.4353 82.2046L89.7648 82.8337ZM86.1501 78.5677C85.9528 77.9818 86.1517 77.3327 86.6695 77.0092C87.2812 76.6269 88.1063 76.8439 88.5125 77.4939C88.6851 77.7701 88.7542 78.08 88.7297 78.3745C89.0779 78.2319 89.4199 78.0638 89.7558 77.8698C90.5967 77.3843 91.3168 76.7852 91.9189 76.0711C92.1379 75.8114 92.23 75.4677 92.1702 75.1333C92.0591 74.512 91.4654 74.0984 90.8441 74.2094C89.9246 74.3738 89.0458 74.6979 88.2048 75.1834C87.3638 75.6689 86.6438 76.268 86.0417 76.9821C85.8227 77.2418 85.7306 77.5855 85.7904 77.9199C85.8369 78.18 85.9679 78.4036 86.1501 78.5677ZM84.6309 78.6022C84.5754 78.4584 84.5328 78.3072 84.5047 78.1498C84.3863 77.4876 84.5458 76.8086 84.9409 76.2701C83.4427 72.1655 85.178 67.485 89.1547 65.4022C89.7213 65.1054 90.3185 64.8709 90.9357 64.7028L96.3217 63.2359C99.2363 62.442 102.321 63.6987 103.852 66.3031L118.508 91.2449C118.742 91.643 118.5 92.1516 118.044 92.2213C113.594 92.9013 109.678 94.3002 106.291 96.4165C102.56 98.7481 98.5538 98.0581 94.4207 94.4433C94.3599 94.3902 94.3095 94.3262 94.2721 94.2547L88.5345 83.2998L81.629 85.5545C81.0483 85.7441 80.5484 85.1037 80.8733 84.5864L84.6309 78.6022ZM98.2492 81.7357C97.893 81.7922 97.5584 81.5491 97.502 81.1929C97.4456 80.8367 97.6886 80.5021 98.0449 80.4457C100.093 80.1213 101.491 78.1978 101.166 76.1495C100.842 74.1012 98.9184 72.7037 96.87 73.0281C96.5138 73.0845 96.1793 72.8415 96.1229 72.4853C96.0664 72.129 96.3095 71.7945 96.6657 71.7381C99.4265 71.3008 102.019 73.1844 102.456 75.9452C102.894 78.7059 101.01 81.2985 98.2492 81.7357ZM111.605 131.714C111.667 132.069 111.43 132.408 111.075 132.471C110.72 132.533 110.381 132.296 110.319 131.941L109.316 126.256C109.254 125.901 109.491 125.563 109.846 125.5C110.201 125.437 110.54 125.674 110.602 126.03L111.605 131.714ZM116.948 150.066C117.095 150.395 116.946 150.781 116.617 150.928C116.287 151.075 115.901 150.926 115.755 150.597C113.496 145.521 114.946 140.665 120.004 136.163C120.274 135.923 120.687 135.947 120.926 136.216C121.166 136.486 121.142 136.899 120.873 137.138C116.212 141.287 114.938 145.551 116.948 150.066ZM117.899 128.196C117.933 128.555 117.669 128.874 117.31 128.907C116.951 128.941 116.632 128.678 116.598 128.319L115.65 118.287C115.616 117.928 115.88 117.61 116.239 117.576C116.598 117.542 116.916 117.805 116.95 118.165L117.899 128.196ZM61.3924 138.147L49.2699 153.397C49.2673 153.4 49.2647 153.403 49.2621 153.406C49.2598 153.423 49.257 153.439 49.2535 153.456C48.9411 154.919 49.4346 156.245 50.7939 157.502C52.1632 158.768 53.7269 159.224 55.5476 158.887C55.6895 158.861 55.8259 158.882 55.9434 158.937L64.8549 146.531C64.9946 144.281 64.7625 142.526 64.1769 141.27C63.6705 140.183 62.7456 139.14 61.3924 138.147ZM60.423 137.267L58.0673 131.768C57.902 131.382 57.6337 131.05 57.2918 130.806C56.2634 130.074 54.8363 130.314 54.1042 131.343C53.2823 132.497 52.3288 133.666 51.2438 134.848C49.2513 137.021 47.2894 139.976 45.3634 143.715C44.3655 145.652 44.6744 148.004 46.1384 149.618L48.5192 152.242L60.423 137.267ZM65.6133 147.714L56.5992 160.263C56.5028 160.397 56.3651 160.484 56.216 160.518C56.1935 161.837 56.7378 162.999 57.8715 164.047C58.7846 164.892 59.6761 165.189 60.564 165.071C61.2582 164.979 61.9321 164.634 62.5244 164.137C63.1465 163.615 65.2652 160.416 68.7036 154.761C68.5847 152.971 68.3268 151.66 67.9462 150.843C67.5997 150.1 66.8199 149.049 65.6133 147.714ZM54.8751 134.201C54.5416 134.338 54.16 134.179 54.0227 133.846C53.8855 133.512 54.0446 133.131 54.3781 132.993C55.9712 132.338 57.3374 132.92 58.2731 134.59C59.216 136.273 58.9909 137.696 57.5497 138.552C57.2396 138.736 56.8389 138.634 56.6548 138.324C56.4706 138.014 56.5728 137.613 56.8829 137.429C57.6565 136.97 57.7562 136.339 57.1337 135.229C56.504 134.105 55.8191 133.813 54.8751 134.201ZM59.5048 143.442C59.1713 143.579 58.7896 143.42 58.6524 143.086C58.5151 142.753 58.6742 142.371 59.0078 142.234C60.6008 141.578 61.9671 142.161 62.9027 143.831C63.8457 145.513 63.6206 146.937 62.1793 147.793C61.8692 147.977 61.4685 147.875 61.2844 147.565C61.1003 147.254 61.2024 146.854 61.5125 146.67C62.2862 146.21 62.3858 145.58 61.7634 144.469C61.1336 143.345 60.4487 143.053 59.5048 143.442ZM64.1489 152.198C63.8154 152.335 63.4338 152.176 63.2965 151.843C63.1593 151.509 63.3184 151.128 63.6519 150.99C65.245 150.335 66.6113 150.917 67.5469 152.587C68.4898 154.27 68.2647 155.693 66.8235 156.549C66.5134 156.733 66.1127 156.631 65.9286 156.321C65.7444 156.011 65.8466 155.61 66.1567 155.426C66.9303 154.967 67.03 154.336 66.4075 153.226C65.7778 152.102 65.0929 151.81 64.1489 152.198ZM204.041 204.833C204.041 203.962 205.347 203.962 205.347 204.833V209.841C205.347 210.712 204.041 210.712 204.041 209.841V204.833V199.826C204.041 198.955 205.347 198.955 205.347 199.826V204.833C205.347 205.704 204.041 205.704 204.041 204.833Z" fill="white"/>
<path fill-rule="evenodd" clip-rule="evenodd" d="M86.1184 110.006L82.0121 109.284C82.0693 109.157 82.0927 109.051 82.0824 108.964C82.063 108.801 82.0246 108.56 81.792 108.416C81.4768 108.22 81.1832 108.329 80.822 108.649C80.7429 108.72 80.607 108.837 80.4143 109.002L73.1368 107.718C73.1476 107.594 73.1288 107.479 73.0803 107.372C73.058 107.323 73.0305 107.278 72.9978 107.237L76.6458 99.6699C77.4449 98.0125 78.8628 96.735 80.5943 96.1124L114.375 83.9668L134.295 92.7759C136.162 93.6016 137.623 95.1373 138.355 97.0432L161.121 156.339L132.484 162.011L128.871 159.621H67.2324L67.6721 158.928L102.262 150.092C103.762 151.25 105.253 152.287 106.492 152.99C111.385 155.767 118.332 158.189 121.581 155.135C123.016 153.786 124.29 151.878 125.403 149.41C126.487 147.007 126.837 144.337 126.41 141.735L122.137 115.737C121.912 114.368 120.62 113.441 119.251 113.666C118.695 113.757 118.187 114.032 117.807 114.447C117.214 115.093 116.692 116.136 116.24 117.576C115.583 116.122 113.873 115.475 112.419 116.131C112.117 116.268 111.84 116.456 111.601 116.687C111.1 117.171 110.718 117.695 110.456 118.258C109.775 119.723 109.507 122.169 109.653 125.595L100.807 120.29C100.67 120.208 100.525 120.153 100.377 120.124L93.1864 104.881L86.1184 110.006ZM166.573 195.889H267.306V199.317H166.573V209.603H267.306V213.031H166.573H163.471V195.889H166.573ZM264.129 183.278H163.471V179.889H264.129V169.89H163.471V166.502H264.129H267.306V183.318H264.129V183.278ZM172.45 186.665V184.542H267.306V186.665H217.184V192.46H267.306V194.583H172.45V192.46V186.665ZM260.449 217.766V231.48H199.388H168.695V228.052H193.674V217.766H168.695V214.338H260.449V217.766Z" fill="#FF4E00"/>
</g>
<defs>
<clipPath id="clip0">
<rect width="433" height="353" fill="white"/>
</clipPath>
</defs>
</svg>

<svg width="433" height="353" fill="none" xmlns="http://www.w3.org/2000/svg"><g clip-path="url(#clip0)"><path d="M238.079 59.22l-44.092-7.162 10.447-27.983c2.31-6.193-.709-9.008-6.719-6.262l-52.214 23.871-21.797-30.07c-3.131-4.315-7.06-3.707-8.739 1.354l-11.681 35.26-56.989-6.962c-6.559-.8-8.585 2.797-4.51 8.001L60.21 72.772 20.343 92.935c-7.498 3.79-6.847 7.994 1.447 9.345l44.092 7.161-10.447 27.983c-2.31 6.193.71 9.008 6.72 6.262l52.213-23.871 21.799 30.076c3.13 4.315 7.06 3.707 8.738-1.354l11.682-35.26 56.988 6.962c6.559.8 8.585-2.796 4.511-8.001l-18.421-23.512 39.861-20.162c7.498-3.79 6.847-7.994-1.447-9.345z" fill="#171717"/><path fill-rule="evenodd" clip-rule="evenodd" d="M226.696 169.891v9.91c0 .871-1.306.871-1.306 0v-6.638c0-.87 1.306-.87 1.306 0 0 .871-1.306.871-1.306 0v-3.272h-58.818l-.124 12.847h6.001v.586a.648.648 0 01.327-.088h90.258l1.805-1.652v-11.693h-38.143zm34.911 14.651h-88.831a.647.647 0 01-.327-.087v10.128h87.957l.042-3.837v-5.142l1.159-1.062zm-89.158 11.347v2.384h-6.001l.206 14.23c.973-1.106 2.06-1.106 3.262 0 .176.162.343.339.503.529h90.029l3.68-1.633v-13.126h-3.762l.026-2.384h-87.943zm66.545 34.947l20.932-.009.483-16.489h-89.132c.484.939.848 2.082 1.091 3.428v10.697l.081 2.401 22.857-.009v8.269l-38.611-1.889a9.797 9.797 0 01-9.102-7.74c-10.668-49.99-9.793-78.528 2.624-85.616 22.545-12.868 24.528 16.279 35.493 13.839 10.964-2.44 1.431-31.009 24.524-33.34 23.093-2.332 17.225 13.469 25.128 24.94 7.903 11.472 13.235-15.88 35.717-15.799 24.988.09 24.216 17.763 24.216 34.55l-6.971 71.098a4.735 4.735 0 01-4.943 4.267l-44.502-2.178.115-10.42zm-21.038.009h.303a.654.654 0 01.502.634l.176 70.074 5.572-8.233a.653.653 0 111.082.732l-6.581 9.724 10.539-.006a.653.653 0 01.001 1.306l-22.884.012a.652.652 0 110-1.306l10.866-.006-7.736-9.619a.653.653 0 111.017-.819l6.818 8.477-.176-70.333a.652.652 0 01.501-.637zM51.702 132.331l10.607-24.686 4.074-1.567-8.818 21.809 14.387-20.615a.652.652 0 111.071.747l-13.391 19.188 21.38-18.732a.653.653 0 01.86.982l-22.436 19.659 33.75-24.235 20.01 42.374-45.525 11.677c-2.283 3.655-3.69 5.688-4.307 6.205-.767.644-1.657 1.1-2.628 1.229-1.28.17-2.558-.256-3.751-1.36-1.464-1.353-2.161-2.944-2.068-4.723-1.875.131-3.559-.48-5.01-1.822-1.583-1.465-2.264-3.131-1.992-4.941l-2.744-3.024a6.53 6.53 0 01-.969-7.379c1.976-3.835 4-6.885 6.08-9.151.503-.549.976-1.094 1.42-1.635zm110.923 159.041l-45.285.439 1.06 10.933h12.558a.653.653 0 010 1.306h-9.739c1.979.544 3.409 1.122 4.304 1.745 1.747 1.218 1.613 2.775-.255 4.103-1.739 1.236-3.474 1.322-5.06.216-1.42-.99-2.701-2.924-3.881-5.803l-19.177 3.253a8.328 8.328 0 00-6.377 5.216l-.353.914h62.743l15.225-13.379-5.763-8.943zm-46.596.451l-15.132.147-9.278-9.742 16.753-30.025a.653.653 0 00-1.141-.636l-16.556 29.671-.007-.008-.053.116-4.975 8.916-8.294 24.296a.653.653 0 01-.618.442H.654a.653.653 0 01-.61-.888l.695-1.802a9.634 9.634 0 017.377-6.034l17.285-2.932c-2.825-.812-4.77-1.63-5.856-2.476-1.68-1.307-1.466-2.855.47-4.083 1.8-1.143 3.538-1.138 5.064.049 1.36 1.058 2.533 3.042 3.557 5.955l8.323-10.819H24.697l27.74-50.553a.654.654 0 001.072-.14l32.51-64.54a.653.653 0 10-1.167-.587l-32.51 64.54a.649.649 0 00-.067.23l-16.707-17.541 32.307-64.116 30.918.343 32.294-.343v33.576l-14.703 32.154 44.939 62.272a.65.65 0 01.389.28l1.564 2.426.999 1.385-.106.001 5.621 8.723a.653.653 0 01-.118.844l-15.831 13.913a.655.655 0 01-.432.163h-63.94a.653.653 0 01-.61-.888l.695-1.802a9.634 9.634 0 017.377-6.034l17.284-2.932c-2.824-.812-4.768-1.63-5.855-2.476-1.681-1.307-1.466-2.855.469-4.083 1.801-1.143 3.539-1.138 5.065.049 1.151.895 2.168 2.455 3.075 4.68l-.94-9.691zm-32.352.147h-45.07l-8.288 10.774h11.824a.653.653 0 010 1.306h-9.738c1.978.544 3.409 1.122 4.303 1.745 1.747 1.218 1.614 2.775-.255 4.103-1.738 1.236-3.474 1.322-5.06.216-1.42-.99-2.7-2.924-3.881-5.803l-19.178 3.253a8.328 8.328 0 00-6.377 5.216l-.352.914h74.656l7.416-21.724zm-59.4 5.895c-1.071-.833-2.209-.837-3.562.022-1.22.774-1.284 1.238-.368 1.951 1.083.842 3.354 1.728 6.778 2.624-.875-2.275-1.834-3.808-2.848-4.597zm7.863 11.178c1.113.776 2.25.719 3.556-.209 1.177-.837 1.217-1.303.265-1.967-1.126-.785-3.44-1.551-6.905-2.267.992 2.227 2.03 3.708 3.084 4.443zm80.952-11.178c-1.071-.833-2.209-.837-3.563.022-1.219.774-1.283 1.238-.367 1.951 1.083.842 3.354 1.728 6.777 2.624-.874-2.275-1.833-3.808-2.847-4.597zm7.863 11.178c1.113.776 2.249.719 3.556-.209 1.177-.837 1.217-1.303.265-1.967-1.126-.785-3.44-1.551-6.906-2.267.993 2.227 2.031 3.708 3.085 4.443zm74.351-28.491h-26.385a7.674 7.674 0 01-7.627-6.828c-.562-5.069 1.034-9.028 4.787-11.876 7.948-6.033 12.064 2.334 15.291 1.501 3.227-.833-1.305-11.428 4.368-14.978 5.673-3.549 7.174 3.603 9.34 7.251.077.13.152.242.226.34v24.59zm43.284-13.215c.268-.045.546-.261.85-.702 2.136-3.101 3.616-9.181 9.211-6.163 5.594 3.017 6.463 12.627 9.646 13.335 3.182.708 8.627-9.616 16.465-4.488 4.219 2.76 5.076 7.328 2.571 13.705a7.672 7.672 0 01-7.152 4.868l-31.818-.042.227-20.513zM89.765 82.834c.456-.079.865-.488 1.242-1.328a.653.653 0 011.191.535c-.46 1.026-1.067 1.704-1.813 1.977l4.987 9.522c3.695 3.192 7.056 3.75 10.227 1.769 3.299-2.061 7.067-3.468 11.301-4.222l-14.174-24.122a5.372 5.372 0 00-.808-1.053l-6.459 3.282-9.481 2.078a7.53 7.53 0 00-.01 3.918 9.622 9.622 0 011.584-1.138 9.4 9.4 0 013.062-1.128 2.449 2.449 0 012.303 3.989 9.395 9.395 0 01-2.508 2.088 9.405 9.405 0 01-3.063 1.128 2.441 2.441 0 01-1.865-.425l-2.542 4.049 5.715-1.866a.653.653 0 01.781.318l.33.629zm-3.615-4.266c-.197-.586.002-1.235.52-1.559.611-.382 1.436-.165 1.843.485.172.276.241.586.217.88.348-.142.69-.31 1.026-.504a8.093 8.093 0 002.163-1.799 1.143 1.143 0 00-1.075-1.862 8.094 8.094 0 00-2.64.974 8.091 8.091 0 00-2.162 1.8 1.143 1.143 0 00.108 1.585zm-1.52.034a2.453 2.453 0 01.31-2.332 8.855 8.855 0 015.996-11.567l5.386-1.467a6.694 6.694 0 017.53 3.067l14.656 24.942a.653.653 0 01-.464.976c-4.45.68-8.366 2.08-11.753 4.195-3.731 2.332-7.737 1.642-11.87-1.973a.651.651 0 01-.149-.188L88.534 83.3l-6.905 2.255a.653.653 0 01-.756-.969l3.758-5.984zm13.62 3.134a.653.653 0 11-.205-1.29 3.755 3.755 0 10-1.175-7.418.653.653 0 11-.204-1.29 5.06 5.06 0 111.583 9.998zm13.355 49.978a.653.653 0 11-1.286.227l-1.003-5.685a.654.654 0 011.286-.226l1.003 5.684zm5.343 18.352a.653.653 0 01-1.193.531c-2.259-5.076-.809-9.932 4.249-14.434a.653.653 0 01.869.975c-4.661 4.149-5.935 8.413-3.925 12.928zm.951-21.87a.652.652 0 11-1.301.123l-.948-10.032a.653.653 0 111.3-.122l.949 10.031zm-56.507 9.951l-12.122 15.25-.008.009a.726.726 0 01-.008.05c-.313 1.463.18 2.789 1.54 4.046 1.37 1.266 2.933 1.722 4.754 1.385a.651.651 0 01.395.05l8.912-12.406c.14-2.25-.093-4.005-.678-5.261-.507-1.087-1.431-2.13-2.785-3.123zm-.969-.88l-2.356-5.499a2.285 2.285 0 00-3.963-.425 36.652 36.652 0 01-2.86 3.505c-1.993 2.173-3.955 5.128-5.88 8.867a5.224 5.224 0 00.774 5.903l2.381 2.624 11.904-14.975zm5.19 10.447L56.6 160.263a.649.649 0 01-.383.255c-.023 1.319.522 2.481 1.655 3.529.914.845 1.805 1.142 2.693 1.024.694-.092 1.368-.437 1.96-.934.623-.522 2.741-3.721 6.18-9.376-.12-1.79-.377-3.101-.758-3.918-.346-.743-1.126-1.794-2.333-3.129zm-10.738-13.513a.654.654 0 01-.497-1.208c1.593-.655 2.96-.073 3.895 1.597.943 1.683.718 3.106-.723 3.962a.653.653 0 01-.667-1.123c.773-.459.873-1.09.25-2.2-.629-1.124-1.314-1.416-2.258-1.028zm4.63 9.241a.653.653 0 01-.497-1.208c1.593-.656 2.96-.073 3.895 1.597.943 1.682.718 3.106-.724 3.962a.653.653 0 01-.666-1.123c.773-.46.873-1.09.25-2.201-.63-1.124-1.314-1.416-2.258-1.027zm4.644 8.756a.654.654 0 01-.497-1.208c1.593-.655 2.96-.073 3.895 1.597.943 1.683.718 3.106-.724 3.962a.653.653 0 01-.666-1.123c.773-.459.873-1.09.25-2.2-.63-1.124-1.314-1.416-2.258-1.028zm139.892 52.635c0-.871 1.306-.871 1.306 0v5.008c0 .871-1.306.871-1.306 0v-10.015c0-.871 1.306-.871 1.306 0v5.007c0 .871-1.306.871-1.306 0z" fill="#fff"/><path fill-rule="evenodd" clip-rule="evenodd" d="M86.118 110.006l-4.106-.722a.626.626 0 00.07-.32c-.019-.163-.057-.404-.29-.548-.315-.196-.609-.087-.97.233-.08.071-.215.188-.408.353l-7.277-1.284a.68.68 0 00-.14-.481l3.649-7.567a7.02 7.02 0 013.948-3.558l33.781-12.145 19.92 8.809a7.674 7.674 0 014.06 4.267l22.766 59.296-28.637 5.672-3.613-2.39H67.232l.44-.693 34.59-8.836c1.5 1.158 2.991 2.195 4.23 2.898 4.893 2.777 11.84 5.199 15.089 2.145 1.435-1.349 2.709-3.257 3.822-5.725a13.391 13.391 0 001.007-7.675l-4.273-25.998a2.512 2.512 0 00-4.33-1.29c-.593.646-1.115 1.689-1.567 3.129a2.89 2.89 0 00-4.639-.889 5.296 5.296 0 00-1.145 1.571c-.681 1.465-.949 3.911-.803 7.337l-8.846-5.305a1.336 1.336 0 00-.43-.166l-7.19-15.243-7.069 5.125zm80.455 85.883h100.733v3.428H166.573v10.286h100.733v3.428H163.471v-17.142h3.102zm97.556-12.611H163.471v-3.389h100.658v-9.999H163.471v-3.388h103.835v16.816h-3.177v-.04zm-91.679 3.387v-2.123h94.856v2.123h-50.122v5.795h50.122v2.123H172.45v-7.918zm87.999 31.101v13.714h-91.754v-3.428h24.979v-10.286h-24.979v-3.428h91.754v3.428z" fill="#FF4E00"/></g><defs><clipPath id="clip0"><path fill="#fff" d="M0 0h433v353H0z"/></clipPath></defs></svg>
